dist/svg/save.svg

<!-- Generated by Trend Micro Style Portal -->
<svg version="1.1" xmlns="http://www.w3.org/2000/svg" width="16" height="16" viewBox="0 0 16 16">
  <title>save</title>
  <path fill="rgb(34,34,34)" d="M11 1h-9c-0.6 0-1 0.4-1 1v12c0 0.6 0.4 1 1 1h12c0.6 0 1-0.4 1-1v-9l-4-4zM3 2h5v3h1v-3h1v4h-7v-4zM13 13h-10v-5h10v5z"></path>
</svg>

<svg width="16" height="16" viewBox="0 0 16 16" fill="rgb(34, 34, 34)" xmlns="http://www.w3.org/2000/svg"><title>save</title><path d="M11 1H2C1.4 1 1 1.4 1 2V14C1 14.6 1.4 15 2 15H14C14.6 15 15 14.6 15 14V5L11 1ZM3 2H8V5H9V2H10V6H3V2ZM13 13H3V8H13V13Z" fill="rgb(34, 34, 34)" fill-opacity="1.00"/></svg>
